SF_Symbols/mail.stack.svg

<?xml version="1.0" encoding="UTF-8"?>
<svg xmlns="http://www.w3.org/2000/svg" xmlns:xlink="http://www.w3.org/1999/xlink" width="24" height="24" viewBox="0 0 24 24" version="1.1">
<g id="surface1">
<path style=" stroke:none;fill-rule:nonzero;fill:rgb(100%,100%,100%);fill-opacity:1;" d="M 5.449219 12.46875 L 12.0625 12.46875 C 12.257812 12.46875 12.421875 12.398438 12.5625 12.261719 C 12.703125 12.113281 12.769531 11.945312 12.769531 11.75 C 12.769531 11.546875 12.703125 11.378906 12.5625 11.238281 C 12.421875 11.101562 12.257812 11.03125 12.0625 11.03125 L 5.449219 11.03125 C 5.238281 11.03125 5.066406 11.101562 4.925781 11.238281 C 4.796875 11.378906 4.730469 11.546875 4.730469 11.75 C 4.730469 11.945312 4.796875 12.113281 4.925781 12.261719 C 5.066406 12.398438 5.238281 12.46875 5.449219 12.46875 Z M 5.449219 15.199219 L 10.167969 15.199219 C 10.367188 15.199219 10.539062 15.132812 10.675781 15 C 10.816406 14.859375 10.886719 14.691406 10.886719 14.488281 C 10.886719 14.289062 10.816406 14.117188 10.675781 13.980469 C 10.539062 13.839844 10.367188 13.769531 10.167969 13.769531 L 5.449219 13.769531 C 5.238281 13.769531 5.066406 13.839844 4.925781 13.980469 C 4.796875 14.117188 4.730469 14.289062 4.730469 14.488281 C 4.730469 14.691406 4.796875 14.859375 4.925781 15 C 5.066406 15.132812 5.238281 15.199219 5.449219 15.199219 Z M 16.800781 15.480469 C 17.246094 15.480469 17.652344 15.371094 18.019531 15.15625 C 18.394531 14.933594 18.691406 14.636719 18.90625 14.261719 C 19.128906 13.886719 19.238281 13.472656 19.238281 13.019531 C 19.238281 12.570312 19.128906 12.160156 18.90625 11.792969 C 18.691406 11.417969 18.394531 11.117188 18.019531 10.894531 C 17.652344 10.671875 17.246094 10.5625 16.800781 10.5625 C 16.34375 10.5625 15.925781 10.671875 15.550781 10.894531 C 15.183594 11.117188 14.890625 11.417969 14.667969 11.792969 C 14.445312 12.160156 14.332031 12.570312 14.332031 13.019531 C 14.332031 13.472656 14.445312 13.886719 14.667969 14.261719 C 14.890625 14.636719 15.183594 14.933594 15.550781 15.15625 C 15.925781 15.371094 16.34375 15.480469 16.800781 15.480469 Z M 4.355469 24 L 19.636719 24 C 20.71875 24 21.535156 23.730469 22.082031 23.1875 C 22.632812 22.644531 22.90625 21.839844 22.90625 20.769531 L 22.90625 10.074219 C 22.90625 9.003906 22.632812 8.199219 22.082031 7.65625 C 21.535156 7.113281 20.71875 6.84375 19.636719 6.84375 L 4.355469 6.84375 C 3.265625 6.84375 2.445312 7.113281 1.894531 7.65625 C 1.355469 8.191406 1.082031 8.996094 1.082031 10.074219 L 1.082031 20.769531 C 1.082031 21.847656 1.355469 22.652344 1.894531 23.1875 C 2.445312 23.730469 3.265625 24 4.355469 24 Z M 4.375 22.324219 C 3.855469 22.324219 3.453125 22.183594 3.175781 21.90625 C 2.898438 21.628906 2.761719 21.21875 2.761719 20.675781 L 2.761719 10.167969 C 2.761719 9.625 2.898438 9.214844 3.175781 8.9375 C 3.453125 8.660156 3.855469 8.519531 4.375 8.519531 L 19.605469 8.519531 C 20.117188 8.519531 20.515625 8.660156 20.800781 8.9375 C 21.085938 9.214844 21.230469 9.625 21.230469 10.167969 L 21.230469 20.675781 C 21.230469 21.21875 21.085938 21.628906 20.800781 21.90625 C 20.515625 22.183594 20.117188 22.324219 19.605469 22.324219 Z M 3.28125 5.167969 L 20.71875 5.167969 C 20.636719 4.695312 20.46875 4.332031 20.21875 4.082031 C 19.976562 3.828125 19.59375 3.699219 19.074219 3.699219 L 4.925781 3.699219 C 4.40625 3.699219 4.019531 3.828125 3.769531 4.082031 C 3.519531 4.332031 3.359375 4.695312 3.28125 5.167969 Z M 5.425781 2.28125 L 18.574219 2.28125 C 18.539062 1.835938 18.390625 1.503906 18.136719 1.28125 C 17.886719 1.050781 17.519531 0.9375 17.042969 0.9375 L 6.949219 0.9375 C 6.46875 0.9375 6.101562 1.050781 5.84375 1.28125 C 5.59375 1.503906 5.453125 1.835938 5.425781 2.28125 Z M 5.425781 2.28125 "/>
</g>
</svg>

<svg xmlns="http://www.w3.org/2000/svg" width="24" height="24"><path style="stroke:none;fill-rule:nonzero;fill:#fff;fill-opacity:1" d="M5.45 12.469h6.612a.69.69 0 0 0 .5-.207.717.717 0 0 0 .208-.512.695.695 0 0 0-.207-.512.69.69 0 0 0-.5-.207H5.449c-.21 0-.383.07-.523.207a.723.723 0 0 0-.196.512c0 .195.067.363.196.512.14.136.312.207.523.207Zm0 2.73h4.718a.706.706 0 0 0 .719-.71c0-.2-.07-.372-.211-.509a.69.69 0 0 0-.508-.21H5.449c-.21 0-.383.07-.523.21a.72.72 0 0 0-.196.508c0 .203.067.371.196.512.14.133.312.2.523.2Zm11.35.281c.446 0 .852-.109 1.22-.324.375-.222.671-.52.886-.894.223-.375.332-.79.332-1.242 0-.45-.11-.86-.332-1.227a2.445 2.445 0 0 0-.886-.898 2.307 2.307 0 0 0-1.22-.332c-.456 0-.874.109-1.25.332a2.591 2.591 0 0 0-.882.898c-.223.371-.34.793-.336 1.227 0 .453.113.867.336 1.242.223.375.516.672.883.894.375.215.793.324 1.25.324ZM4.356 24h15.282c1.082 0 1.898-.27 2.445-.813.55-.542.824-1.347.824-2.417V10.074c0-1.07-.273-1.875-.824-2.418-.547-.543-1.363-.812-2.445-.812H4.355c-1.09 0-1.91.27-2.46.812-.54.535-.813 1.34-.813 2.418V20.77c0 1.078.273 1.882.813 2.418.55.542 1.37.812 2.46.812Zm.02-1.676c-.52 0-.922-.14-1.2-.418-.277-.277-.413-.687-.413-1.23V10.168c0-.543.136-.953.414-1.23.277-.278.68-.418 1.199-.418h15.23c.512 0 .91.14 1.196.418.285.277.43.687.43 1.23v10.508c0 .543-.145.953-.43 1.23-.285.278-.684.418-1.196.418ZM3.281 5.168H20.72c-.082-.473-.25-.836-.5-1.086-.242-.254-.625-.383-1.145-.383H4.926c-.52 0-.906.13-1.156.383-.25.25-.41.613-.489 1.086Zm2.145-2.887h13.148c-.035-.445-.183-.777-.437-1-.25-.23-.617-.343-1.094-.343H6.949c-.48 0-.847.113-1.105.343-.25.223-.39.555-.418 1Zm0 0"/></svg>
